pro/src/icons/stroke-new-offer.svg

<svg width="48" height="48" viewBox="0 0 48 48" fill="none" xmlns="http://www.w3.org/2000/svg">
<path id="icon" fill-rule="evenodd" clip-rule="evenodd" d="M9 5C7.34315 5 6 6.34315 6 8C6 9.65685 7.34315 11 9 11C10.6569 11 12 9.65685 12 8C12 6.34315 10.6569 5 9 5ZM4 8C4 5.23858 6.23858 3 9 3C11.4207 3 13.4396 4.72019 13.901 7.00485C13.9335 7.00164 13.9666 7 14 7H30.5C35.1923 7 39 10.8077 39 15.5C39 20.1923 35.1923 24 30.5 24H20C16.1323 24 13 27.1323 13 31C13 34.8677 16.1323 38 20 38H32.5858L29.2929 34.7071C28.9024 34.3166 28.9024 33.6834 29.2929 33.2929C29.6834 32.9024 30.3166 32.9024 30.7071 33.2929L35.7022 38.288C35.7202 38.3057 35.7376 38.3242 35.7543 38.3434C35.8899 38.4988 35.9693 38.6861 35.9927 38.879C36.0001 38.9401 36.0019 39.0014 35.9981 39.0623C35.9834 39.2963 35.8867 39.5228 35.7166 39.6974C35.7135 39.7007 35.7103 39.7039 35.7071 39.7071L30.7071 44.7071C30.3166 45.0976 29.6834 45.0976 29.2929 44.7071C28.9024 44.3166 28.9024 43.6834 29.2929 43.2929L32.5858 40H20C15.0277 40 11 35.9723 11 31C11 26.0277 15.0277 22 20 22H30.5C34.0877 22 37 19.0877 37 15.5C37 11.9123 34.0877 9 30.5 9H14C13.9666 9 13.9335 8.99836 13.901 8.99515C13.4396 11.2798 11.4207 13 9 13C6.23858 13 4 10.7614 4 8ZM44.7071 36.2929C45.0976 36.6834 45.0976 37.3166 44.7071 37.7071L43.4142 39L44.7071 40.2929C45.0976 40.6834 45.0976 41.3166 44.7071 41.7071C44.3166 42.0976 43.6834 42.0976 43.2929 41.7071L42 40.4142L40.7071 41.7071C40.3166 42.0976 39.6834 42.0976 39.2929 41.7071C38.9024 41.3166 38.9024 40.6834 39.2929 40.2929L40.5858 39L39.2929 37.7071C38.9024 37.3166 38.9024 36.6834 39.2929 36.2929C39.6834 35.9024 40.3166 35.9024 40.7071 36.2929L42 37.5858L43.2929 36.2929C43.6834 35.9024 44.3166 35.9024 44.7071 36.2929Z" fill="currentColor"/>
</svg>

<svg xmlns="http://www.w3.org/2000/svg" width="48" height="48" fill="none"><path id="icon" fill="currentColor" fill-rule="evenodd" d="M9 5a3 3 0 1 0 0 6 3 3 0 0 0 0-6M4 8a5 5 0 0 1 9.901-.995Q13.951 7 14 7h16.5c4.692 0 8.5 3.808 8.5 8.5S35.192 24 30.5 24H20c-3.868 0-7 3.132-7 7s3.132 7 7 7h12.586l-3.293-3.293a1 1 0 0 1 1.414-1.414l4.995 4.995.052.055a1 1 0 0 1 .244.72 1 1 0 0 1-.281.634l-.01.01-5 5a1 1 0 0 1-1.414-1.414L32.586 40H20c-4.972 0-9-4.028-9-9s4.028-9 9-9h10.5c3.588 0 6.5-2.912 6.5-6.5S34.088 9 30.5 9H14q-.05 0-.099-.005A5.002 5.002 0 0 1 4 8m40.707 28.293a1 1 0 0 1 0 1.414L43.414 39l1.293 1.293a1 1 0 0 1-1.414 1.414L42 40.414l-1.293 1.293a1 1 0 0 1-1.414-1.414L40.586 39l-1.293-1.293a1 1 0 0 1 1.414-1.414L42 37.586l1.293-1.293a1 1 0 0 1 1.414 0" clip-rule="evenodd"/></svg>
